usr/share/icons/biglinux-icons-material/22/actions/tools.svg

<svg width="22" height="22" version="1.1" xmlns="http://www.w3.org/2000/svg">
 <style id="current-color-scheme" type="text/css">.ColorScheme-Text {
            color:#363636;
        }</style>
 <path class="ColorScheme-Text" d="m8 3c-0.554 0-1.0082 0.44606-1 1v1h-2c-1.108 0-2 0.892-2 2v10c0 1.108 0.892 2 2 2h12c1.108 0 2-0.892 2-2v-10c0-1.108-0.892-2-2-2h-2v-1c0-0.554-0.446-1-1-1zm0 1h6v1h-6zm-3 2h12c0.554 0 0.97304 0.44666 1 1v3h-3v-1h-1v1h-6v-1h-1v1h-3v-3c0-0.554 0.446-1 1-1zm-1 5h3v1h1v-1h6v1h1v-1h3v6c0 0.554-0.446 1-1 1h-12c-0.554 0-1-0.446-1-1z" fill="currentColor"/>
</svg>

<svg xmlns="http://www.w3.org/2000/svg" width="22" height="22"><path fill="currentColor" d="M8 3a.993.993 0 0 0-1 1v1H5c-1.108 0-2 .892-2 2v10c0 1.108.892 2 2 2h12c1.108 0 2-.892 2-2V7c0-1.108-.892-2-2-2h-2V4c0-.554-.446-1-1-1zm0 1h6v1H8zM5 6h12c.554 0 .973.447 1 1v3h-3V9h-1v1H8V9H7v1H4V7c0-.554.446-1 1-1zm-1 5h3v1h1v-1h6v1h1v-1h3v6c0 .554-.446 1-1 1H5c-.554 0-1-.446-1-1z" style="color:#dedede"/></svg>
